X:1
T:Title
%%score { ( 1 4 ) | ( 2 3 ) }
L:1/8
M:4/4
K:Bb
V:1 treble nm="Grand Piano"
V:4 treble 
V:2 bass 
V:3 bass 
V:1
 z4 z2[Q:1/4=100] [DF]2 | [DF]2 [B,D]>[CE] [DF]2 [FB]2 | [EB]2 [EG]2 [DF]2 [DB]2 | A2 AB c2 d2 | %4
[M:3/4] [DB]6 |[M:1/4] [DF]2 |[M:4/4] G2 G>A [EGB]2 [B,EG]2 | [B,EG]2 [B,DF]2 [B,DF]2 [DFG]2 | %8
 F2- [Fc]2 B2 G2 | F8 | [Fd]2 [Fd]>[Ec] B2- [DFB]2 | [EGB]2 [EGB]>[B,FA] [B,EG]3 [B,EG] | %12
 [DF]2 [DF]2 [FB]2 [Fd]2 | d2 c2 c4 | [Fd]2 [Fd]>[Ec] [DB]2 [DF]2 | [B,EG]2 [B,EB]2 F3 F | %16
 B3 B c2 c2 |[M:3/4] [DB]6 |] %18
V:2
 z4 z2 [B,,B,]2 | [B,,B,]2 [B,,F,]2 [B,,B,]2 [D,B,]2 | [E,G,]2 [E,B,]2 [B,,B,]2 [B,,B,]2 | %3
 [F,CE]2 [CE][B,D] [F,A,E]2 [F,A,F]2 |[M:3/4] [B,,B,]6 |[M:1/4] [B,,B,]2 | %6
[M:4/4] [E,B,E]2 E>F E,2 E,2 | B,,2 B,,2 B,,2 B,,2 | z2 A,2 G,2 B,2 | [F,A,]2 [F,B,]2 [F,C]4 | %10
 [B,,B,]2 [B,,B,]>[B,,B,] [B,,B,]2 B,,2 | E,2 E,>E, E,3 E, | [B,,B,]2 [B,,B,]2 [D,B,]2 [B,,B,]2 | %13
 [F,B,F]2 [F,A,F]2 [F,A,F]4 | [B,,B,]2 [B,,B,]>[B,,B,] [B,,B,]2 [B,,B,]2 | %15
 E,>F, G,>A, [B,D]3 [B,D] | [G,B,D]3 [G,B,D] [F,A,E]2 [F,E]2 |[M:3/4] [B,,F,]6 |] %18
V:3
 x8 | x8 | x8 | z2 F,2 z4 |[M:3/4] x6 |[M:1/4] x2 |[M:4/4] z2 [E,B,]2 z4 | x8 | C,4 C,4 | x8 | x8 | %11
 x8 | x8 | x8 | x8 | x8 | x8 |[M:3/4] x6 |] %18
V:4
 x8 | x8 | x8 | x8 |[M:3/4] x6 |[M:1/4] x2 |[M:4/4] x8 | x8 | [CA]2 z2 =E4 | z2 D2 E4 | z4 D2 z2 | %11
 x8 | x8 | x8 | x8 | x8 | x8 |[M:3/4] x6 |] %18

